packages/foundations/assets/icons/functional/images/date & time/alarm_clock_plus_28.svg

<svg width="28" height="28" viewBox="0 0 28 28" fill="none" xmlns="http://www.w3.org/2000/svg">
<g clip-path="url(#clip0_185_644)">
<path fill-rule="evenodd" clip-rule="evenodd" d="M20.4258 3.51367C22.6679 3.51367 24.5 5.34575 24.5 7.58793C24.5 8.81836 23.9531 9.9668 23.0508 10.7324C23.4062 11.7442 23.625 12.8379 23.625 13.9864C23.625 16.3652 22.75 18.5254 21.3281 20.2207L23.4609 23.0918C23.5703 23.2559 23.625 23.4199 23.625 23.6114C23.625 24.1036 23.2148 24.4864 22.75 24.4864C22.4766 24.4864 22.2031 24.377 22.0391 24.1309L20.0703 21.4512C18.4023 22.7911 16.2969 23.6114 14 23.6114C11.7031 23.6114 9.5977 22.7911 7.95708 21.4512L5.96094 24.1309C5.79688 24.377 5.52344 24.4864 5.25 24.4864C4.7852 24.4864 4.375 24.0762 4.375 23.6114C4.375 23.4199 4.42969 23.2559 4.56645 23.0918L6.67188 20.2207C5.25 18.5254 4.4023 16.3652 4.4023 13.9864C4.4023 12.8379 4.59375 11.7442 4.97656 10.7324C4.04688 9.9668 3.5 8.81836 3.5 7.58793C3.5 5.34575 5.33208 3.51367 7.60156 3.51367C8.80469 3.51367 9.95312 4.06055 10.7188 4.96293C11.7304 4.58012 12.8516 4.38867 14 4.38867C15.1484 4.38867 16.2696 4.58012 17.2812 4.96293C18.0469 4.06055 19.1953 3.51367 20.4258 3.51367ZM14 6.13867C9.67969 6.13867 6.1523 9.66606 6.1523 13.9864C6.1523 18.334 9.67969 21.8614 14 21.8614C18.3477 21.8614 21.875 18.334 21.875 13.9864C21.875 9.66606 18.3477 6.13867 14 6.13867ZM7.60156 5.26367C6.31645 5.26367 5.25 6.30273 5.25 7.58793C5.25 8.13481 5.44145 8.627 5.76958 9.03711C6.5625 7.69731 7.71094 6.57617 9.05083 5.75586C8.64062 5.42773 8.12105 5.26367 7.60156 5.26367ZM20.3984 5.23637C19.9062 5.23637 19.4688 5.40043 18.9766 5.75586C20.2891 6.57617 21.4102 7.69731 22.2304 9.03711C22.5585 8.627 22.75 8.13481 22.75 7.58793C22.75 6.30273 21.6835 5.23637 20.3984 5.23637ZM9.625 14.0137C9.625 13.5488 10.0078 13.1387 10.5 13.1387H13.125V10.5137C13.125 10.0488 13.5078 9.63867 14 9.63867C14.4648 9.63867 14.875 10.0488 14.875 10.5137V13.1387H17.5C17.9648 13.1387 18.375 13.5488 18.375 14.0137C18.375 14.5059 17.9648 14.8887 17.5 14.8887H14.875V17.5137C14.875 18.0059 14.4648 18.3887 14 18.3887C13.5078 18.3887 13.125 18.0059 13.125 17.5137V14.8887H10.5C10.0078 14.8887 9.625 14.5059 9.625 14.0137Z" fill="#1A1C1F"/>
</g>
<defs>
<clipPath id="clip0_185_644">
<rect width="28" height="28" fill="white"/>
</clipPath>
</defs>
</svg>

<svg xmlns="http://www.w3.org/2000/svg" width="28" height="28" fill="none"><g clip-path="url(#a)"><path fill="#1A1C1F" fill-rule="evenodd" d="M20.426 3.514A4.085 4.085 0 0 1 24.5 7.588a4.13 4.13 0 0 1-1.45 3.144 9.8 9.8 0 0 1 .575 3.254c0 2.38-.875 4.54-2.297 6.235l2.133 2.87a.881.881 0 0 1-.71 1.395c-.274 0-.548-.109-.712-.355l-1.969-2.68c-1.668 1.34-3.773 2.16-6.07 2.16a9.53 9.53 0 0 1-6.043-2.16l-1.996 2.68c-.164.246-.438.355-.711.355a.9.9 0 0 1-.875-.875c0-.191.055-.355.191-.52l2.106-2.87a9.64 9.64 0 0 1-2.27-6.235c0-1.148.192-2.242.575-3.254A4.07 4.07 0 0 1 3.5 7.588c0-2.242 1.832-4.074 4.102-4.074 1.203 0 2.351.547 3.117 1.449 1.011-.383 2.133-.574 3.281-.574s2.27.191 3.281.574a4.13 4.13 0 0 1 3.145-1.45M14 6.139c-4.32 0-7.848 3.527-7.848 7.847 0 4.348 3.528 7.875 7.848 7.875a7.877 7.877 0 0 0 7.875-7.875c0-4.32-3.527-7.847-7.875-7.847m-6.398-.875c-1.286 0-2.352 1.039-2.352 2.324 0 .547.191 1.039.52 1.45.793-1.34 1.94-2.462 3.28-3.282a2.32 2.32 0 0 0-1.448-.492m12.796-.028c-.492 0-.93.164-1.421.52a10.1 10.1 0 0 1 3.253 3.281c.328-.41.52-.902.52-1.45a2.37 2.37 0 0 0-2.352-2.35M9.625 14.014c0-.465.383-.875.875-.875h2.625v-2.625c0-.465.383-.875.875-.875a.9.9 0 0 1 .875.875v2.625H17.5a.9.9 0 0 1 .875.875c0 .492-.41.875-.875.875h-2.625v2.625c0 .492-.41.875-.875.875a.864.864 0 0 1-.875-.875v-2.625H10.5a.864.864 0 0 1-.875-.875" clip-rule="evenodd"/></g><defs><clipPath id="a"><path fill="#fff" d="M0 0h28v28H0z"/></clipPath></defs></svg>
